public/icons/team-recon.svg

<?xml version="1.0" encoding="UTF-8"?>
<svg id="svg1" xmlns="http://www.w3.org/2000/svg" version="1.1" viewBox="0 0 960 960" width="20px" height="20px" fill="#000">
  <path d="M340.7,327.3l-244.7,152.7,244.7,152.7h37.3l-152.7-152.7,152.7-152.7h-37.3ZM582.1,327.3l152.7,152.7-152.7,152.7h37.3l244.7-152.7-244.7-152.7h-37.3Z"/>
  <circle cx="480" cy="480" r="136"/>
</svg>

<svg xmlns="http://www.w3.org/2000/svg" viewBox="0 0 960 960"><path d="M340.7 327.3 96 480l244.7 152.7H378L225.3 480 378 327.3zm241.4 0L734.8 480 582.1 632.7h37.3L864.1 480 619.4 327.3z"/><circle cx="480" cy="480" r="136"/></svg>
